gtk/icons/scalable/emblems/emblem-system-symbolic.svg

<svg width='16' height='16'
     xmlns:gpa='https://www.gtk.org/grappa'
     gpa:version='1'
     gpa:keywords='system emblem pegged cogged wheel circle'
     gpa:state='0'>
  <path d='M 8 13 L 8 15 M 8 13 C 9.10999966 13, 10.1400003 12.6400003, 10.9700003 12.0200005 M 8 13 C 6.93044949 13.000742, 5.88907671 12.6571236, 5.03000021 12.0200005 M 8 3 L 8 1 M 8 3 C 9.10999966 3, 10.1400003 3.3599999, 10.9700003 3.98000002 M 8 3 C 6.88999987 3, 5.86000013 3.3599999, 5.03000021 3.98000002 M 10.9700003 3.98000002 L 12.1099997 2.33999991 M 10.9700003 3.98000002 C 11.8105822 4.59987879, 12.4364204 5.46696234, 12.7600002 6.46000004 M 5.03000021 3.98000002 L 3.9000001 2.33999991 M 5.03000021 3.98000002 C 4.18941832 4.59987879, 3.5635798 5.46696234, 3.23999977 6.46000004 M 10.9700003 12.0200005 L 12.1099997 13.6700001 M 10.9700003 12.0200005 C 11.8105822 11.4001217, 12.4364204 10.5330381, 12.7600002 9.53999996 M 5.03000021 12.0200005 L 3.9000001 13.6700001 M 5.03000021 12.0200005 C 4.18941832 11.4001217, 3.56357956 10.5330381, 3.23999977 9.53999996 M 3.24000001 6.46000004 L 1.34000003 5.84000015 M 3.24000001 6.46000004 C 2.92000008 7.46000004, 2.92000008 8.55000019, 3.24000001 9.53999996 M 3.24000001 9.53999996 L 1.34000003 10.1700001 M 12.7600002 9.53999996 L 14.6599998 10.1700001 M 12.7600002 9.53999996 C 13.0799999 8.53999996, 13.0799999 7.44999981, 12.7600002 6.46000004 M 12.7600002 6.46000004 L 14.6599998 5.84000015'
        id='path0'
        stroke-width='2'
        stroke-linecap='round'
        stroke-linejoin='round'
        stroke='rgb(0,0,0)'
        fill='none'
        class='foreground-stroke transparent-fill'/>
</svg>

<svg xmlns="http://www.w3.org/2000/svg" width="16" height="16" fill="none">
  <path class="foreground-stroke transparent-fill" stroke="#241F30" stroke-linecap="round" stroke-linejoin="round" stroke-width="2" d="M8 13v2m0-2c1.11 0 2.14-.36 2.97-.98M8 13a4.98 4.98 0 0 1-2.97-.98M8 3V1m0 2c1.11 0 2.14.36 2.97.98M8 3c-1.11 0-2.14.36-2.97.98m5.94 0 1.14-1.64m-1.14 1.64a5.01 5.01 0 0 1 1.79 2.48M5.03 3.98 3.9 2.34m1.13 1.64a5.01 5.01 0 0 0-1.79 2.48m7.73 5.56 1.14 1.65m-1.14-1.65a5.01 5.01 0 0 0 1.79-2.48m-7.73 2.48L3.9 13.67m1.13-1.65a5.01 5.01 0 0 1-1.79-2.48m0-3.08-1.9-.62m1.9.62c-.32 1-.32 2.09 0 3.08m0 0-1.9.63m11.42-.63 1.9.63m-1.9-.63c.32-1 .32-2.09 0-3.08m0 0 1.9-.62"/>
</svg>
